images/Path-git.svg

<svg width="25" height="25" viewBox="0 0 25 25" fill="none" xmlns="http://www.w3.org/2000/svg">
<path d="M12.5 0.5C5.59375 0.5 0 6.00948 0 12.8045C0 18.242 3.58125 22.8531 8.54688 24.4788C9.17188 24.5946 9.40104 24.2137 9.40104 23.8871C9.40104 23.595 9.39062 22.8207 9.38542 21.795C5.90833 22.5369 5.175 20.1442 5.175 20.1442C4.60625 18.7241 3.78437 18.3443 3.78437 18.3443C2.65208 17.5815 3.87188 17.5971 3.87188 17.5971C5.12708 17.6827 5.78646 18.8649 5.78646 18.8649C6.90104 20.7463 8.7125 20.2027 9.42708 19.8886C9.53958 19.0924 9.86146 18.5509 10.2188 18.243C7.44271 17.9352 4.525 16.8771 4.525 12.1628C4.525 10.8198 5.00937 9.72212 5.81146 8.86127C5.67083 8.55031 5.24896 7.2992 5.92083 5.60462C5.92083 5.60462 6.96771 5.27489 9.35833 6.86617C10.3583 6.59278 11.4208 6.45713 12.4833 6.45087C13.5458 6.45713 14.6083 6.59278 15.6083 6.86617C17.9833 5.27489 19.0302 5.60462 19.0302 5.60462C19.7021 7.2992 19.2802 8.55031 19.1552 8.86127C19.9521 9.72212 20.4365 10.8198 20.4365 12.1628C20.4365 16.8897 17.5146 17.93 14.7333 18.2326C15.1708 18.602 15.5771 19.3564 15.5771 20.5094C15.5771 22.156 15.5615 23.4791 15.5615 23.8788C15.5615 24.2012 15.7802 24.5862 16.4208 24.4631C21.4219 22.8478 25 18.2336 25 12.8045C25 6.00948 19.4031 0.5 12.5 0.5V0.5Z" fill="white"/>
</svg>

<svg width="25" height="25" fill="none" xmlns="http://www.w3.org/2000/svg"><path d="M12.5.5C5.594.5 0 6.01 0 12.805c0 5.437 3.581 10.048 8.547 11.674.625.116.854-.265.854-.592 0-.292-.01-1.066-.016-2.092-3.477.742-4.21-1.65-4.21-1.65-.569-1.42-1.39-1.8-1.39-1.8-1.133-.764.087-.748.087-.748 1.255.086 1.914 1.268 1.914 1.268 1.115 1.881 2.927 1.338 3.641 1.024.113-.797.434-1.338.792-1.646-2.776-.308-5.694-1.366-5.694-6.08 0-1.343.484-2.44 1.286-3.302-.14-.31-.562-1.562.11-3.256 0 0 1.047-.33 3.437 1.261 1-.273 2.063-.409 3.125-.415 1.063.006 2.125.142 3.125.415 2.375-1.591 3.422-1.261 3.422-1.261.672 1.694.25 2.945.125 3.256.797.861 1.281 1.959 1.281 3.302 0 4.727-2.921 5.767-5.703 6.07.438.369.844 1.123.844 2.276 0 1.647-.015 2.97-.015 3.37 0 .322.218.707.859.584 5-1.615 8.579-6.23 8.579-11.659C25 6.01 19.403.5 12.5.5Z" fill="#fff"/></svg>
